X: 21262
T: The Secret Stream
%R: air, reel
B: James Oswald "The Caledonian Pocket Companion" v.2 p.126 #2
Z: 2018 John Chambers <jc:trillian.mit.edu>
M: C
L: 1/8
K: Gm
|:"_Slow"\
G2(AB) (cB)(AG) | (ed)(cB) A2D2 | G3A B2(cd) | (ed)(cB) (B2A)z | G2(AB) (cB)(AG) | (ed)(c=B)
c2(d^f) | g2=fd (ce)(dc) | (d<B) TA>G G4 :: d2(e/d/)c =B2(cd) | (Gc)(=Bd) (ce)(df) | (ed)(cB)
A2_Bc | (FB)(Ac) B3d | "_soft"(d2c)B (B2A)d | (cB)(AG) T^F2(=ED) | "^strong"G2(gd) (ce)(dc) | (d<B) TA>G G4 :|


